svgs/regular/hot-tub-person.svg

<svg xmlns="http://www.w3.org/2000/svg" viewBox="0 0 512 512"><!--! Font Awesome Pro 6.6.0 by @fontawesome - https://fontawesome.com License - https://fontawesome.com/license (Commercial License) Copyright 2024 Fonticons, Inc. --><path d="M64 0a64 64 0 1 1 0 128A64 64 0 1 1 64 0zM48 336l0 112c0 8.8 7.2 16 16 16l48 0 0-160-64 0 0 16 0 16zM160 464l72 0 0-160-72 0 0 160zm120 0l72 0 0-160-72 0 0 160zm-2.7-208l98.7 0 24 0 48 0c35.3 0 64 28.7 64 64l0 128c0 35.3-28.7 64-64 64L64 512c-35.3 0-64-28.7-64-64L0 336l0-16 0-40 0-24c0-53 43-96 96-96c20.8 0 41 6.7 57.6 19.2l85.3 64c11.1 8.3 24.6 12.8 38.4 12.8zM48 256l88 0 40 0-51.2-38.4c-8.3-6.2-18.4-9.6-28.8-9.6c-26.5 0-48 21.5-48 48zm352 48l0 160 48 0c8.8 0 16-7.2 16-16l0-128c0-8.8-7.2-16-16-16l-48 0zM272 24l0 5.2c0 20.4 8.7 39.9 23.8 53.5l16.4 14.8c25.3 22.8 39.7 55.2 39.7 89.2l0 13.2c0 13.3-10.7 24-24 24s-24-10.7-24-24l0-13.2c0-20.4-8.7-39.9-23.8-53.5l-16.4-14.8C238.4 95.7 224 63.3 224 29.2l0-5.2c0-13.3 10.7-24 24-24s24 10.7 24 24zm112 0l0 5.2c0 20.4 8.7 39.9 23.8 53.5l16.4 14.8c25.3 22.8 39.7 55.2 39.7 89.2l0 13.2c0 13.3-10.7 24-24 24s-24-10.7-24-24l0-13.2c0-20.4-8.7-39.9-23.8-53.5l-16.4-14.8C350.4 95.7 336 63.3 336 29.2l0-5.2c0-13.3 10.7-24 24-24s24 10.7 24 24z"/></svg>

<svg xmlns="http://www.w3.org/2000/svg" viewBox="0 0 512 512"><!--! Font Awesome Pro 6.4.0 by @fontawesome - https://fontawesome.com License - https://fontawesome.com/license (Commercial License) Copyright 2023 Fonticons, Inc. --><path d="M64 0a64 64 0 1 1 0 128A64 64 0 1 1 64 0zM48 336V448c0 8.8 7.2 16 16 16h48V304H48v16 16zM160 464h72V304H160V464zm120 0h72V304l-72 0V464zm-2.7-208H376l24 0 48 0c35.3 0 64 28.7 64 64V448c0 35.3-28.7 64-64 64H64c-35.3 0-64-28.7-64-64V336 320 280 256c0-53 43-96 96-96c20.8 0 41 6.7 57.6 19.2l85.3 64c11.1 8.3 24.6 12.8 38.4 12.8zM48 256l88 0h40l-51.2-38.4c-8.3-6.2-18.4-9.6-28.8-9.6c-26.5 0-48 21.5-48 48zm352 48V464h48c8.8 0 16-7.2 16-16V320c0-8.8-7.2-16-16-16H400zM272 24v5.2c0 20.4 8.7 39.9 23.8 53.5l16.4 14.8c25.3 22.8 39.7 55.2 39.7 89.2V200c0 13.3-10.7 24-24 24s-24-10.7-24-24V186.8c0-20.4-8.7-39.9-23.8-53.5l-16.4-14.8C238.4 95.7 224 63.3 224 29.2V24c0-13.3 10.7-24 24-24s24 10.7 24 24zm112 0v5.2c0 20.4 8.7 39.9 23.8 53.5l16.4 14.8c25.3 22.8 39.7 55.2 39.7 89.2V200c0 13.3-10.7 24-24 24s-24-10.7-24-24V186.8c0-20.4-8.7-39.9-23.8-53.5l-16.4-14.8C350.4 95.7 336 63.3 336 29.2V24c0-13.3 10.7-24 24-24s24 10.7 24 24z"/></svg>
